bullet.svg

<svg fill="currentColor" viewBox="0 0 24 24"><path d="M14 22h-4v-1h4zm-1-12V7h-2v3l-1 1.5V20h4v-8.5zm-1-8s-1 1-1 3v1h2V5s0-2-1-3"/></svg>

<svg  viewBox="0 0 24 24" fill="currentColor"><path  d="M14,22H10V21H14V22M13,10V7H11V10L10,11.5V20H14V11.5L13,10M12,2C12,2 11,3 11,5V6H13V5C13,5 13,3 12,2Z"/></svg>
